**kern	**kern	**kern	**kern
*staff3	*staff4	*staff1	*staff2
*clefF4	*clefF4	*clefG2	*clefG2
*k[f#c#]	*k[f#c#]	*k[f#c#]	*k[f#c#]
*M2/4	*M2/4	*M2/4	*M2/4
*D:	*D:	*D:	*D:
=-	=-	=-	=-
2r	8r	8A'L	2r
.	8AA 8C# 8E	(32ALK	.
.	.	16e'JJ)	.
.	.	32r	.
.	8r	8e'L	.
.	8GG 8BB 8C# 8E	(32eLK	.
.	.	16a'JJ)	.
.	.	32r	.
=41	=41	=41	=41
2r	8r	8a'L	2r
.	8FF# 8AA 8D	(32aLK	.
.	.	16dd'JJ)	.
.	.	32r	.
.	8r	8dd'L	.
.	8DD 8FF# 8AA	(32ddLK	.
.	.	16ff#'JJ)	.
.	.	32r	.
=42	=42	=42	=42
2r	8r	8ff#'L	2r
.	8CC# 8EE 8AA	(32ff#LK	.
.	.	16gg'JJ)	.
.	.	32r	.
.	8r	8gg'L	.
.	8GG 8AA	(32ggLK	.
.	.	16ccc#'JJ)	.
.	.	32r	.
=43	=43	=43	=43
2r	8r	8ccc#'L	2r
.	8FF# 8AA	(32ccc#LK	.
.	.	16ddd'JJ)	.
.	.	32r	.
.	4r	8ddd'L	.
.	.	(32dddLK	.
.	.	16aa'JJ)	.
.	.	32r	.
=44	=44	=44	=44
2r	8r	8aa'L	2r
.	8CC# 8GG 8AA	(32aaLK	.
.	.	16ee'JJ)	.
.	.	32r	.
.	8r	8ee'L	.
.	8GG 8AA 8C#	(32eeLK	.
.	.	16a'JJ)	.
.	.	32r	.
=45	=45	=45	=45
2r	8r	8a'L	2r
.	8FF# 8AA 8D	(32aLK	.
.	.	16dd'JJ)	.
.	.	32r	.
.	8r	8dd'L	.
.	8D 8F#	(32ddLK	.
.	.	16d'JJ)	.
.	.	32r	.
=46	=46	=46	=46
2r	8r	8d'L	2r
.	8D 8E	(32dLK	.
.	.	16a'JJ)	.
.	.	32r	.
.	8r	8a'L	.
.	8AA 8C# 8E	(32aLK	.
.	.	16A'JJ)	.
.	.	32r	.
=47	=47	=47	=47
2r	8r	8A'L	2r
.	8D	(32ALK	.
.	.	16d'JJ)	.
.	.	32r	.
.	8DD	4r	.
.	8r	.	.
=48:|!	=48:|!	=48:|!	=48:|!
*-	*-	*-	*-
